projects/oblique/icons/Duplicate.svg

<?xml version="1.0" encoding="UTF-8"?><svg id="a" xmlns="http://www.w3.org/2000/svg" viewBox="0 0 24 24"><path d="M18.10547,4.68872V1.25025H7.96436L3.25,7.72095v11.58984h2.64453v3.43945h14.85547V4.68872h-2.64453ZM16.60547,2.75025v1.93848h-5.99658l-1.51318,2.07715V2.75025h7.50977ZM10.24023,7.74243v2.91211h-2.12158l2.12158-2.91211ZM7.5957,4.30298v2.91211h-2.12158l2.12158-2.91211ZM4.75,17.81079v-9.0957h2.92584l-1.78131,2.44531v6.65039h-1.14453ZM19.25,21.25025H7.39453v-9.0957h4.3457v-5.96582h7.50977v15.06152Z"/></svg>

<svg xmlns="http://www.w3.org/2000/svg" viewBox="0 0 24 24"><title>Duplicate</title><path d="M18.10547,4.68872V1.25025H7.96436L3.25,7.721V19.31079H5.89453v3.43946H20.75V4.68872Zm-1.5-1.93847V4.68872H10.60889L9.0957,6.76587V2.75025ZM10.24023,7.74243v2.91211H8.11865ZM7.5957,4.303V7.21509H5.47412ZM4.75,17.81079V8.71509H7.67584L5.89453,11.1604v6.65039Zm14.5,3.43946H7.39453V12.15454h4.3457V6.18872H19.25Z" fill="#171717"/></svg>
